svg/system/exit_door_fill.svg

<?xml version="1.0" encoding="UTF-8"?>
<svg width="24px" height="24px" viewBox="0 0 24 24" version="1.1" xmlns="http://www.w3.org/2000/svg" xmlns:xlink="http://www.w3.org/1999/xlink">
    <title>exit_door_fill</title>
    <g id="页面-1" stroke="none" stroke-width="1" fill="none" fill-rule="evenodd">
        <g id="System" transform="translate(-912.000000, -240.000000)">
            <g id="exit_door_fill" transform="translate(912.000000, 240.000000)">
                 <path d="M24,0 L24,24 L0,24 L0,0 L24,0 Z M12.5934901,23.257841 L12.5819402,23.2595131 L12.5108777,23.2950439 L12.4918791,23.2987469 L12.4918791,23.2987469 L12.4767152,23.2950439 L12.4056548,23.2595131 C12.3958229,23.2563662 12.3870493,23.2590235 12.3821421,23.2649074 L12.3780323,23.275831 L12.360941,23.7031097 L12.3658947,23.7234994 L12.3769048,23.7357139 L12.4804777,23.8096931 L12.4953491,23.8136134 L12.4953491,23.8136134 L12.5071152,23.8096931 L12.6106902,23.7357139 L12.6232938,23.7196733 L12.6232938,23.7196733 L12.6266527,23.7031097 L12.609561,23.275831 C12.6075724,23.2657013 12.6010112,23.2592993 12.5934901,23.257841 L12.5934901,23.257841 Z M12.8583906,23.1452862 L12.8445485,23.1473072 L12.6598443,23.2396597 L12.6498822,23.2499052 L12.6498822,23.2499052 L12.6471943,23.2611114 L12.6650943,23.6906389 L12.6699349,23.7034178 L12.6699349,23.7034178 L12.678386,23.7104931 L12.8793402,23.8032389 C12.8914285,23.8068999 12.9022333,23.8029875 12.9078286,23.7952264 L12.9118235,23.7811639 L12.8776777,23.1665331 C12.8752882,23.1545897 12.8674102,23.1470016 12.8583906,23.1452862 L12.8583906,23.1452862 Z M12.1430473,23.1473072 C12.1332178,23.1423925 12.1221763,23.1452606 12.1156365,23.1525954 L12.1099173,23.1665331 L12.0757714,23.7811639 C12.0751323,23.7926639 12.0828099,23.8018602 12.0926481,23.8045676 L12.108256,23.8032389 L12.3092106,23.7104931 L12.3186497,23.7024347 L12.3186497,23.7024347 L12.3225043,23.6906389 L12.340401,23.2611114 L12.337245,23.2485176 L12.337245,23.2485176 L12.3277531,23.2396597 L12.1430473,23.1473072 Z" id="MingCute" fill-rule="nonzero"></path>
                <path d="M15.5409,3 C15.2969,3.30307 15.1204,3.64255 15.0116,3.99827 L14.3801,3.99827 C12.7233,3.99827 11.3801,5.34142 11.3801,6.99827 C11.3801,8.65513 12.7233,9.99827 14.3801,9.99827 L15.0105,9.99827 C15.1494,10.4543 15.3993,10.8837 15.7602,11.244 C16.3764,11.8594 17.1934,12.151 18,12.119 L18,19 L20,19 C20.5523,19 21,19.4477 21,20 C21,20.5523 20.5523,21 20,21 L4,21 C3.44772,21 3,20.5523 3,20 C3,19.4477 3.44772,19 4,19 L4,5 C4,3.89543 4.89543,3 6,3 L15.5409,3 Z M13.5,13 C12.6716,13 12,13.6716 12,14.5 C12,15.3284 12.6716,16 13.5,16 C14.3284,16 15,15.3284 15,14.5 C15,13.6716 14.3284,13 13.5,13 Z M18.5873,4.17156 L20.7072,6.29149 C21.0975,6.68184 21.0977,7.31465 20.7077,7.70525 L18.5877,9.82799 C18.1974,10.2188 17.5642,10.2192 17.1735,9.82891 C16.7827,9.43864 16.7823,8.80548 17.1725,8.4147 L17.5884,7.99827 L14.3801,7.99827 C13.8278,7.99827 13.3801,7.55056 13.3801,6.99827 C13.3801,6.44599 13.8278,5.99827 14.3801,5.99827 L17.5855,5.99827 L17.173,5.58577 C16.7825,5.19524 16.7825,4.56208 17.173,4.17156 C17.5636,3.78103 18.1967,3.78103 18.5873,4.17156 Z" id="形状" fill="#09244B"></path>
            </g>
        </g>
    </g>
</svg>

<svg xmlns="http://www.w3.org/2000/svg" width="24" height="24"><g fill="none" fill-rule="evenodd"><path d="M24 0v24H0V0h24ZM12.593 23.258l-.011.002-.071.035-.02.004-.014-.004-.071-.035c-.01-.004-.019-.001-.024.005l-.004.01-.017.428.005.02.01.013.104.074.015.004.012-.004.104-.074.012-.016.004-.017-.017-.427c-.002-.01-.009-.017-.017-.018Zm.265-.113-.013.002-.185.093-.01.01-.003.011.018.43.005.012.008.007.201.093c.012.004.023 0 .029-.008l.004-.014-.034-.614c-.003-.012-.01-.02-.02-.022Zm-.715.002a.023.023 0 0 0-.027.006l-.006.014-.034.614c0 .012.007.02.017.024l.015-.002.201-.093.01-.008.004-.011.017-.43-.003-.012-.01-.01-.184-.092Z"/><path fill="#09244B" d="M15.54 3a2.98 2.98 0 0 0-.528.998h-.632a3 3 0 0 0 0 6h.63c.14.456.39.886.75 1.246a2.992 2.992 0 0 0 2.24.875V19h2a1 1 0 1 1 0 2H4a1 1 0 1 1 0-2V5a2 2 0 0 1 2-2h9.54ZM13.5 13a1.5 1.5 0 1 0 0 3 1.5 1.5 0 0 0 0-3Zm5.087-8.828 2.12 2.12a1 1 0 0 1 0 1.413l-2.12 2.123a1 1 0 1 1-1.415-1.413l.416-.417H14.38a1 1 0 1 1 0-2h3.205l-.412-.412a1 1 0 0 1 1.414-1.414Z"/></g></svg>
